SET_VELOCITY_LIMIT ACCEL=5000 ACCEL_TO_DECEL=5000 SQUARE_CORNER_VELOCITY=5
; generated by SuperSlicer 2.3.57 on 2022-03-08 at 12:35:58 UTC


;
;

;
;
; 

; external perimeters extrusion width = 0.40mm
; perimeters extrusion width = 0.40mm
; infill extrusion width = 0.72mm
; solid infill extrusion width = 0.56mm
; top infill extrusion width = 0.40mm
; first layer extrusion width = 0.48mm

; object:{"name":"manuform-plate-2022","id":"manuform-plate-2022.03.04-09.51.56.stl id:0 copy 0","object_center":[150.000000,150.000000,0.000000],"boundingbox_center":[150.000000,150.000000,1.500000],"boundingbox_size":[166.885101,174.903214,3.000000]}
; plater:{"center":[150.000000,150.000000,0.000000],"boundingbox_center":[150.000000,150.000000,1.500000],"boundingbox_size":[166.885101,174.903214,3.000000]}

M73 P0 R128
;TYPE:Custom
; extr_mult= 1.0
; custom gcode: start_gcode
M104 S0
M140 S0
PRINT_START BED=100 HOTEND=255 CHAMBER=50
; custom gcode end: start_gcode
G21 ; set units to millimeters
G90 ; use absolute coordinates
M83 ; use relative distances for extrusion
; custom gcode: start_filament_gcode
; Filament gcode
; custom gcode end: start_filament_gcode
;LAYER_CHANGE
;Z:0.25
;HEIGHT:0.25
G1 Z0.25 F27000
G1 E-1 F1800
G1 Z0.45 F27000
G1 X66.86 Y81.337
G1 Z0.25
G1 E1 F1800
; custom gcode: feature_gcode
; External perimeter
;Skirt
SET_VELOCITY_LIMIT ACCEL=7000 ACCEL_TO_DECEL=7000 SQUARE_CORNER_VELOCITY=8

; Support material
; custom gcode end: feature_gcode

;TYPE:Skirt
; extr_mult= 1.0
;WIDTH:0.48
G1 X64.782 Y83.044 E0.11009
G1 X64.199 Y83.687 E0.03553
G1 X63.731 Y84.417 E0.03553
G1 X63.39 Y85.215 E0.03553
G1 X63.187 Y86.059 E0.03553
G1 X62.312 Y94.523 E0.34842
G1 X61.552 Y114.398 E0.81439
G1 X74.232 Y211.689 E4.01739
G1 X74.861 Y214.415 E0.11455
G1 X75.197 Y215.197 E0.03484
G1 X75.656 Y215.913 E0.03484
G1 X77.005 Y217.599 E0.08839
G1 X94.337 Y237.402 E1.07757
G1 X95.125 Y238.117 E0.04358
G1 X96.042 Y238.658 E0.04358
G1 X96.852 Y238.952 E0.0353
G1 X97.7 Y239.108 E0.0353
G1 X133.33 Y242.39 E1.46507
G1 X150.137 Y242.502 E0.68823
G1 X172.079 Y239.636 E0.90606
G1 X226.445 Y226.612 E2.28906
G1 X227.447 Y226.252 E0.04358
G1 X228.355 Y225.696 E0.04358
G1 X236.123 Y218.595 E0.43097
G1 X236.807 Y217.816 E0.04243
G1 X237.28 Y217.01 E0.03829
G1 X237.601 Y216.137 E0.03806
G1 X238.409 Y212.24 E0.16296
G1 X238.498 Y211.518 E0.02977
G1 X236.48 Y121.029 E3.70608
G1 X236.278 Y119.814 E0.05046
G1 X235.471 Y117.56 E0.09803
G1 X234.563 Y115.661 E0.08618
G1 X234.088 Y114.915 E0.03622
G1 X227.145 Y107.831 E0.40614
G1 X226.491 Y107.296 E0.03461
G1 X225.759 Y106.873 E0.03461
G1 X114.504 Y58.173 E4.97276
M73 P0 R127
G1 X113.317 Y57.824 E0.05069
G1 X110.747 Y57.541 E0.10586
G1 X100.135 Y57.485 E0.43453
G1 X99.376 Y57.54 E0.03115
G1 X98.633 Y57.704 E0.03115
G1 X97.922 Y57.975 E0.03115
G1 X97.258 Y58.346 E0.03115
G1 X78.635 Y71.658 E0.93731
G1 X66.906 Y81.299 E0.62168
; INIT printing object manuform-plate-2022.03.04-09.51.56.stl id:0 copy 0
M104 S255 ; set temperature
G1 E-1
SET_VELOCITY_LIMIT ACCEL=5000 ACCEL_TO_DECEL=5000 SQUARE_CORNER_VELOCITY=5
G1 Z0.45 F27000
; printing object manuform-plate-2022.03.04-09.51.56.stl id:0 copy 0
G1 X140.434 Y102.128
G1 Z0.25
G1 E1 F1800
; custom gcode: feature_gcode
; External perimeter
;Perimeter
SET_VELOCITY_LIMIT ACCEL=2000 ACCEL_TO_DECEL=2000 SQUARE_CORNER_VELOCITY=8

; Overhang perimeter
; custom gcode end: feature_gcode

;TYPE:Internal perimeter
; extr_mult= 1.0
G1 X141.755 Y104.416 E0.10821
G1 X144.398 Y104.416 E0.10821
G1 X145.719 Y102.128 E0.10821
G1 X144.398 Y99.839 E0.10821
G1 X141.755 Y99.839 E0.10821
G1 X140.464 Y102.076 E0.10575
SET_VELOCITY_LIMIT ACCEL=5000 ACCEL_TO_DECEL=5000 SQUARE_CORNER_VELOCITY=5
G1 X140.926 Y102.128 F27000
; custom gcode: feature_gcode
; External perimeter
;ExternalPerimeter
SET_VELOCITY_LIMIT ACCEL=1000 ACCEL_TO_DECEL=1000 SQUARE_CORNER_VELOCITY=8

; Perimeter
; custom gcode end: feature_gcode

;TYPE:External perimeter
; extr_mult= 1.0
G1 F1800
G1 X142.001 Y103.99 E0.08805
G1 X144.151 Y103.99 E0.08805
G1 X145.227 Y102.128 E0.08805
G1 X144.151 Y100.265 E0.08805
G1 X142.001 Y100.265 E0.08805
G1 X140.956 Y102.076 E0.08559
;WIPE_START
SET_VELOCITY_LIMIT ACCEL=5000 ACCEL_TO_DECEL=5000 SQUARE_CORNER_VELOCITY=5
G1 X140.619 Y102.385 F27000
;WIPE_END
G1 E-1 F1800
G1 Z0.45 F27000
G1 X175.954 Y112.721
G1 Z0.25
G1 E1 F1800
; custom gcode: feature_gcode
; External perimeter
;Perimeter
SET_VELOCITY_LIMIT ACCEL=2000 ACCEL_TO_DECEL=2000 SQUARE_CORNER_VELOCITY=8

; Overhang perimeter
; custom gcode end: feature_gcode

;TYPE:Internal perimeter
; extr_mult= 1.0
G1 X189.116 Y112.77 E0.53892
G1 X189.799 Y112.791 E0.028
G1 X190.031 Y112.808 E0.00951
G1 X200.168 Y112.833 E0.41509
G1 X200.374 Y112.848 E0.00844
G1 X217.087 Y112.883 E0.68432
G1 X217.613 Y112.961 E0.02178
G1 X222.762 Y112.972 E0.21085
G1 X228.687 Y118.967 E0.34512
G1 X228.772 Y119.142 E0.00798
G1 X228.095 Y119.811 E0.03899
G1 X229.706 Y121.759 E0.10353
G1 X228.23 Y138.999 E0.70849
G1 X227.944 Y145.897 E0.28267
G1 X228.012 Y163.275 E0.71158
G1 X228.359 Y170.313 E0.2885
G1 X229.109 Y178.372 E0.33143
G1 X226.359 Y178.372 E0.11261
G1 X224.545 Y181.514 E0.14852
G1 X226.359 Y184.655 E0.14852
G1 X229.694 Y184.655 E0.13654
G1 X230.035 Y188.327 E0.151
G1 X230.248 Y189.881 E0.06421
G1 X230.386 Y189.939 E0.00611
G1 X230.716 Y196.442 E0.2666
G1 X231.761 Y211.146 E0.60359
G1 X231.177 Y213.996 E0.11915
G1 X224.603 Y220.031 E0.36541
G1 X193.107 Y219.961 E1.28962
G1 X174.952 Y219.894 E0.74338
G1 X171.495 Y230.418 E0.45361
G1 X170.236 Y232.977 E0.11675
G1 X165.476 Y232.951 E0.19491
G1 X166.599 Y231.005 E0.09201
G1 X164.786 Y227.864 E0.14852
G1 X161.158 Y227.864 E0.14852
G1 X159.345 Y231.005 E0.14852
G1 X160.453 Y232.924 E0.09074
G1 X154.174 Y232.891 E0.25708
G1 X149.355 Y235.779 E0.23008
G1 X134.474 Y235.674 E0.60934
G1 X132.48 Y232.739 E0.1453
G1 X116.094 Y232.593 E0.67095
G1 X112.989 Y232.562 E0.12716
G1 X99.098 Y232.411 E0.56879
G1 X95.097 Y225.509 E0.32666
G1 X87.236 Y217.647 E0.45524
G1 X85.854 Y213.169 E0.19188
G1 X87.122 Y210.973 E0.10384
G1 X85.308 Y207.832 E0.14852
G1 X84.206 Y207.832 E0.04511
G1 X82.741 Y203.084 E0.20343
G1 X81.599 Y197.915 E0.21675
G1 X79.216 Y181.203 E0.69121
G1 X78.826 Y175.612 E0.22949
G1 X78.826 Y158.131 E0.71578
G1 X79.217 Y152.517 E0.23044
G1 X80.622 Y142.585 E0.41075
G1 X81.317 Y142.585 E0.02848
G1 X83.131 Y139.443 E0.14852
G1 X81.435 Y136.506 E0.13887
G1 X83.339 Y126.768 E0.4063
G1 X70.312 Y115.837 E0.69631
G1 X70.237 Y115.765 E0.00425
G1 X68.603 Y113.773 E0.10549
G1 X73.794 Y105.359 E0.40478
G1 X74.429 Y104.217 E0.05354
G1 X73.761 Y103.005 E0.05664
G1 X70.859 Y99.219 E0.19533
G1 X71.415 Y98.748 E0.02981
G1 X69.077 Y94.508 E0.19826
G1 X69.785 Y87.634 E0.28296
G1 X82.644 Y77.074 E0.68131
G1 X84.38 Y76.25 E0.07865
G1 X87.33 Y76.04 E0.12113
G1 X100.699 Y64.22 E0.73066
G1 X110.048 Y64.265 E0.38282
G1 X112.026 Y65.532 E0.09617
G1 X112.754 Y64.807 E0.04208
G1 X115.022 Y65.925 E0.10352
G1 X115.069 Y65.984 E0.00311
G1 X123.274 Y77.277 E0.57154
G1 X133.616 Y93.678 E0.79393
G1 X141.133 Y99.211 E0.38219
G1 X139.449 Y102.128 E0.13788
G1 X141.263 Y105.269 E0.14852
G1 X144.89 Y105.269 E0.14852
G1 X146.703 Y102.128 E0.14852
G1 X145.721 Y100.426 E0.08046
G1 X154.51 Y101.673 E0.36347
G1 X174.082 Y101.777 E0.80142
G1 X175.234 Y103.985 E0.10195
G1 X175.949 Y112.661 E0.35648
SET_VELOCITY_LIMIT ACCEL=5000 ACCEL_TO_DECEL=5000 SQUARE_CORNER_VELOCITY=5
G1 X176.347 Y112.296 F27000
SET_VELOCITY_LIMIT ACCEL=2000 ACCEL_TO_DECEL=2000 SQUARE_CORNER_VELOCITY=8
G1 F1800
G1 X189.123 Y112.344 E0.52314
G1 X189.822 Y112.365 E0.02861
G1 X190.047 Y112.381 E0.00927
G1 X200.184 Y112.407 E0.41506
G1 X200.389 Y112.421 E0.00843
G1 X217.118 Y112.457 E0.68499
G1 X217.645 Y112.535 E0.02178
G1 X222.941 Y112.546 E0.21686
G1 X229.04 Y118.717 E0.35527
G1 X229.29 Y119.231 E0.02338
G1 X228.672 Y119.84 E0.03553
G1 X230.146 Y121.622 E0.09468
G1 X228.656 Y139.027 E0.71525
G1 X228.371 Y145.905 E0.28189
G1 X228.439 Y163.264 E0.71079
G1 X228.785 Y170.283 E0.28773
G1 X229.577 Y178.799 E0.35021
G1 X226.605 Y178.799 E0.12168
G1 X225.038 Y181.514 E0.12836
G1 X226.605 Y184.228 E0.12836
G1 X229.74 Y184.228 E0.12836
G1 X229.791 Y184.141 E0.00414
G1 X230.08 Y184.204 E0.01212
G1 X230.459 Y188.278 E0.16753
G1 X230.638 Y189.583 E0.05395
G1 X230.798 Y189.652 E0.00712
G1 X231.142 Y196.416 E0.27732
G1 X232.191 Y211.174 E0.60581
G1 X231.567 Y214.217 E0.1272
G1 X224.768 Y220.458 E0.37788
G1 X193.106 Y220.387 E1.29645
G1 X175.261 Y220.321 E0.7307
G1 X171.891 Y230.58 E0.44214
G1 X170.5 Y233.404 E0.1289
G1 X164.739 Y233.374 E0.23589
G1 X166.107 Y231.005 E0.11198
G1 X164.539 Y228.29 E0.12836
G1 X161.404 Y228.29 E0.12836
G1 X159.837 Y231.005 E0.12836
G1 X161.194 Y233.355 E0.11109
G1 X154.291 Y233.318 E0.28262
G1 X149.471 Y236.206 E0.23009
G1 X134.247 Y236.099 E0.6234
G1 X132.253 Y233.163 E0.14532
G1 X116.09 Y233.019 E0.66181
G1 X112.985 Y232.989 E0.12717
G1 X98.851 Y232.835 E0.57873
G1 X94.756 Y225.771 E0.33431
G1 X86.859 Y217.874 E0.45729
G1 X85.391 Y213.117 E0.20383
G1 X86.629 Y210.973 E0.10138
G1 X85.062 Y208.258 E0.12836
G1 X83.165 Y208.258 E0.07765
G1 X83.094 Y207.943 E0.01323
G1 X83.704 Y207.649 E0.02773
G1 X82.328 Y203.194 E0.19095
G1 X81.179 Y197.992 E0.21813
G1 X78.792 Y181.248 E0.6925
G1 X78.399 Y175.627 E0.23072
G1 X78.399 Y158.117 E0.71699
G1 X78.792 Y152.472 E0.23166
G1 X80.176 Y142.688 E0.40461
G1 X79.437 Y142.517 E0.03108
G1 X79.478 Y142.158 E0.0148
G1 X81.071 Y142.158 E0.06524
G1 X82.639 Y139.443 E0.12836
G1 X80.986 Y136.581 E0.13532
M73 P1 R127
G1 X82.872 Y126.933 E0.40254
G1 X70.027 Y116.154 E0.68661
G1 X69.923 Y116.055 E0.00587
G1 X68.081 Y113.808 E0.11898
G1 X73.426 Y105.144 E0.41684
G1 X73.942 Y104.216 E0.04348
G1 X73.404 Y103.239 E0.04566
G1 X70.274 Y99.156 E0.21063
G1 X70.873 Y98.649 E0.03214
G1 X68.639 Y94.597 E0.18945
G1 X69.379 Y87.416 E0.29561
G1 X82.414 Y76.711 E0.69063
G1 X84.269 Y75.831 E0.08408
G1 X87.156 Y75.625 E0.11851
G1 X100.538 Y63.793 E0.7314
G1 X110.174 Y63.839 E0.39455
G1 X111.967 Y64.989 E0.08722
G1 X112.669 Y64.29 E0.04054
G1 X115.295 Y65.584 E0.11986
G1 X115.408 Y65.725 E0.0074
G1 X123.627 Y77.037 E0.57255
G1 X133.934 Y93.382 E0.7912
G1 X141.747 Y99.134 E0.39726
M73 P1 R126
G1 X141.655 Y99.413 E0.01201
G1 X141.509 Y99.413 E0.006
G1 X139.941 Y102.128 E0.12836
G1 X141.509 Y104.843 E0.12836
G1 X144.644 Y104.843 E0.12836
G1 X146.211 Y102.128 E0.12836
G1 X144.914 Y99.881 E0.10623
G1 X154.541 Y101.246 E0.39814
G1 X174.341 Y101.352 E0.81076
G1 X175.652 Y103.864 E0.116
G1 X176.342 Y112.236 E0.34399
SET_VELOCITY_LIMIT ACCEL=5000 ACCEL_TO_DECEL=5000 SQUARE_CORNER_VELOCITY=5
G1 X82.146 Y139.443 F27000
SET_VELOCITY_LIMIT ACCEL=2000 ACCEL_TO_DECEL=2000 SQUARE_CORNER_VELOCITY=8
G1 F1800
G1 X80.825 Y137.155 E0.10821
G1 X78.182 Y137.155 E0.10821
G1 X76.861 Y139.443 E0.10821
G1 X78.182 Y141.732 E0.10821
G1 X80.825 Y141.732 E0.10821
G1 X82.116 Y139.495 E0.10575
SET_VELOCITY_LIMIT ACCEL=5000 ACCEL_TO_DECEL=5000 SQUARE_CORNER_VELOCITY=5
G1 X81.654 Y139.443 F27000
; custom gcode: feature_gcode
; External perimeter
;ExternalPerimeter
SET_VELOCITY_LIMIT ACCEL=1000 ACCEL_TO_DECEL=1000 SQUARE_CORNER_VELOCITY=8

; Perimeter
; custom gcode end: feature_gcode

;TYPE:External perimeter
; extr_mult= 1.0
G1 F1800
G1 X80.579 Y137.581 E0.08805
G1 X78.428 Y137.581 E0.08805
G1 X77.353 Y139.443 E0.08805
G1 X78.428 Y141.306 E0.08805
G1 X80.579 Y141.306 E0.08805
G1 X81.624 Y139.495 E0.08559
;WIPE_START
SET_VELOCITY_LIMIT ACCEL=5000 ACCEL_TO_DECEL=5000 SQUARE_CORNER_VELOCITY=5
G1 X81.96 Y139.186 F27000
;WIPE_END
G1 E-1 F1800
G1 Z0.45 F27000
G1 X82.173 Y208.685
G1 Z0.25
G1 E1 F1800
; custom gcode: feature_gcode
; External perimeter
;Perimeter
SET_VELOCITY_LIMIT ACCEL=2000 ACCEL_TO_DECEL=2000 SQUARE_CORNER_VELOCITY=8

; Overhang perimeter
; custom gcode end: feature_gcode

;TYPE:Internal perimeter
; extr_mult= 1.0
G1 X80.852 Y210.973 E0.10821
G1 X82.173 Y213.262 E0.10821
G1 X84.816 Y213.262 E0.10821
G1 X86.137 Y210.973 E0.10821
G1 X84.816 Y208.685 E0.10821
G1 X82.233 Y208.685 E0.10575
SET_VELOCITY_LIMIT ACCEL=5000 ACCEL_TO_DECEL=5000 SQUARE_CORNER_VELOCITY=5
G1 X82.419 Y209.111 F27000
; custom gcode: feature_gcode
; External perimeter
;ExternalPerimeter
SET_VELOCITY_LIMIT ACCEL=1000 ACCEL_TO_DECEL=1000 SQUARE_CORNER_VELOCITY=8

; Perimeter
; custom gcode end: feature_gcode

;TYPE:External perimeter
; extr_mult= 1.0
G1 F1800
G1 X81.344 Y210.973 E0.08805
G1 X82.419 Y212.835 E0.08805
G1 X84.57 Y212.835 E0.08805
G1 X85.645 Y210.973 E0.08805
G1 X84.57 Y209.111 E0.08805
G1 X82.479 Y209.111 E0.08559
;WIPE_START
SET_VELOCITY_LIMIT ACCEL=5000 ACCEL_TO_DECEL=5000 SQUARE_CORNER_VELOCITY=5
G1 X82.043 Y208.974 F27000
;WIPE_END
G1 E-1 F1800
G1 Z0.45 F27000
G1 X160.329 Y231.005
G1 Z0.25
G1 E1 F1800
; custom gcode: feature_gcode
; External perimeter
;Perimeter
SET_VELOCITY_LIMIT ACCEL=2000 ACCEL_TO_DECEL=2000 SQUARE_CORNER_VELOCITY=8

; Overhang perimeter
; custom gcode end: feature_gcode

;TYPE:Internal perimeter
; extr_mult= 1.0
G1 X161.651 Y233.294 E0.10821
G1 X164.293 Y233.294 E0.10821
G1 X165.615 Y231.005 E0.10821
G1 X164.293 Y228.717 E0.10821
G1 X161.651 Y228.717 E0.10821
G1 X160.359 Y230.953 E0.10575
SET_VELOCITY_LIMIT ACCEL=5000 ACCEL_TO_DECEL=5000 SQUARE_CORNER_VELOCITY=5
G1 X160.822 Y231.005 F27000
; custom gcode: feature_gcode
; External perimeter
;ExternalPerimeter
SET_VELOCITY_LIMIT ACCEL=1000 ACCEL_TO_DECEL=1000 SQUARE_CORNER_VELOCITY=8

; Perimeter
; custom gcode end: feature_gcode

;TYPE:External perimeter
; extr_mult= 1.0
G1 F1800
G1 X161.897 Y232.867 E0.08805
G1 X164.047 Y232.867 E0.08805
G1 X165.122 Y231.005 E0.08805
G1 X164.047 Y229.143 E0.08805
G1 X161.897 Y229.143 E0.08805
G1 X160.852 Y230.953 E0.08559
;WIPE_START
SET_VELOCITY_LIMIT ACCEL=5000 ACCEL_TO_DECEL=5000 SQUARE_CORNER_VELOCITY=5
G1 X160.515 Y231.262 F27000
;WIPE_END
G1 E-1 F1800
G1 Z0.45 F27000
G1 X226.851 Y183.802
G1 Z0.25
G1 E1 F1800
; custom gcode: feature_gcode
; External perimeter
;Perimeter
SET_VELOCITY_LIMIT ACCEL=2000 ACCEL_TO_DECEL=2000 SQUARE_CORNER_VELOCITY=8

; Overhang perimeter
; custom gcode end: feature_gcode

;TYPE:Internal perimeter
; extr_mult= 1.0
G1 X229.494 Y183.802 E0.10821
G1 X230.815 Y181.514 E0.10821
G1 X229.494 Y179.225 E0.10821
G1 X226.851 Y179.225 E0.10821
G1 X225.53 Y181.514 E0.10821
G1 X226.821 Y183.75 E0.10575
SET_VELOCITY_LIMIT ACCEL=5000 ACCEL_TO_DECEL=5000 SQUARE_CORNER_VELOCITY=5
G1 X227.098 Y183.376 F27000
; custom gcode: feature_gcode
; External perimeter
;ExternalPerimeter
SET_VELOCITY_LIMIT ACCEL=1000 ACCEL_TO_DECEL=1000 SQUARE_CORNER_VELOCITY=8

; Perimeter
; custom gcode end: feature_gcode

;TYPE:External perimeter
; extr_mult= 1.0
G1 F1800
G1 X229.248 Y183.376 E0.08805
G1 X230.323 Y181.514 E0.08805
G1 X229.248 Y179.651 E0.08805
G1 X227.098 Y179.651 E0.08805
G1 X226.022 Y181.514 E0.08805
G1 X227.068 Y183.324 E0.08559
;WIPE_START
SET_VELOCITY_LIMIT ACCEL=5000 ACCEL_TO_DECEL=5000 SQUARE_CORNER_VELOCITY=5
G1 X227.167 Y183.77 F27000
;WIPE_END
G1 X85.174 Y213.86
; custom gcode: feature_gcode
; External perimeter
;Perimeter
SET_VELOCITY_LIMIT ACCEL=2000 ACCEL_TO_DECEL=2000 SQUARE_CORNER_VELOCITY=8

; Overhang perimeter
; custom gcode end: feature_gcode

;TYPE:Internal perimeter
; extr_mult= 1.0
G1 F1800
G1 X84.254 Y214.303 E0.04181
G1 X82.734 Y214.303 E0.06224
G1 X81.365 Y213.644 E0.06224
G1 X80.417 Y212.455 E0.06224
G1 X80.079 Y210.973 E0.06224
G1 X80.417 Y209.491 E0.06224
G1 X81.365 Y208.303 E0.06224
G1 X83.188 Y207.425 E0.08287
G1 X81.916 Y203.303 E0.17664
G1 X80.76 Y198.068 E0.21951
G1 X78.368 Y181.293 E0.69379
G1 X77.973 Y175.642 E0.23196
G1 X77.973 Y158.102 E0.71821
G1 X78.368 Y152.428 E0.23289
G1 X79.699 Y143.016 E0.38922
G1 X78.83 Y142.815 E0.03656
G1 X77.374 Y142.114 E0.06615
G1 X76.426 Y140.925 E0.06224
G1 X76.088 Y139.443 E0.06224
G1 X76.426 Y137.961 E0.06224
G1 X77.374 Y136.773 E0.06224
G1 X78.744 Y136.113 E0.06224
G1 X80.643 Y136.113 E0.07778
G1 X82.405 Y127.098 E0.37614
G1 X69.741 Y116.471 E0.67691
G1 X69.61 Y116.344 E0.00749
G1 X67.558 Y113.843 E0.13246
G1 X73.058 Y104.928 E0.42891
G1 X73.455 Y104.215 E0.03342
G1 X73.046 Y103.473 E0.03468
