SET_VELOCITY_LIMIT ACCEL=5000 ACCEL_TO_DECEL=5000 SQUARE_CORNER_VELOCITY=8
; generated by SuperSlicer 2.3.57 on 2022-03-06 at 09:02:12 UTC


;
;

;
;
; 

; external perimeters extrusion width = 0.40mm
; perimeters extrusion width = 0.40mm
; infill extrusion width = 0.72mm
; solid infill extrusion width = 0.56mm
; top infill extrusion width = 0.40mm
; first layer extrusion width = 0.48mm

; object:{"name":"miodecModplate","id":"miodecModplate.stl id:0 copy 0","object_center":[150.000000,150.000000,0.000000],"boundingbox_center":[150.000000,150.000000,5.000001],"boundingbox_size":[69.999992,59.999992,10.000003]}
; plater:{"center":[150.000000,150.000000,0.000000],"boundingbox_center":[150.000000,150.000000,5.000001],"boundingbox_size":[69.999992,59.999992,10.000003]}

M73 P0 R46
;TYPE:Custom
; extr_mult= 1.0
; custom gcode: start_gcode
M104 S0
M140 S0
PRINT_START BED=100 HOTEND=255 CHAMBER=50
; custom gcode end: start_gcode
G21 ; set units to millimeters
G90 ; use absolute coordinates
M83 ; use relative distances for extrusion
; custom gcode: start_filament_gcode
; Filament gcode
; custom gcode end: start_filament_gcode
;LAYER_CHANGE
;Z:0.25
;HEIGHT:0.25
G1 Z0.25 F27000
G1 E-1 F1800
G1 Z0.45 F27000
G1 X112.095 Y116.935
G1 Z0.25
G1 E1 F1800
; custom gcode: feature_gcode
; External perimeter
;Skirt
SET_VELOCITY_LIMIT ACCEL=7000 ACCEL_TO_DECEL=7000 SQUARE_CORNER_VELOCITY=8

; Support material
; custom gcode end: feature_gcode

;TYPE:Skirt
; extr_mult= 1.0
;WIDTH:0.48
G1 X111.409 Y117.741 E0.04335
G1 X110.902 Y118.664 E0.04312
G1 X110.14 Y120.588 E0.08472
G1 X109.988 Y121.299 E0.02977
G1 X109.937 Y122.019 E0.02954
G1 X109.94 Y178.139 E2.29791
G1 X110.158 Y179.471 E0.05528
G1 X110.893 Y181.314 E0.08125
G1 X111.339 Y182.155 E0.03898
G1 X111.935 Y182.905 E0.03921
G1 X112.741 Y183.591 E0.04335
G1 X113.664 Y184.098 E0.04312
G1 X115.588 Y184.86 E0.08472
G1 X116.299 Y185.012 E0.02977
G1 X117.019 Y185.063 E0.02954
G1 X183.116 Y185.061 E2.70644
G1 X184.46 Y184.846 E0.05573
G1 X186.304 Y184.112 E0.08125
G1 X187.155 Y183.661 E0.03944
G1 X187.905 Y183.065 E0.03921
G1 X188.572 Y182.287 E0.04197
G1 X189.074 Y181.393 E0.04197
G1 X189.837 Y179.488 E0.08404
G1 X190.06 Y178.151 E0.05551
G1 X190.05 Y121.653 E2.31337
G1 X189.81 Y120.426 E0.05115
G1 X189.042 Y118.536 E0.08357
G1 X188.543 Y117.673 E0.04082
G1 X187.889 Y116.92 E0.04082
G1 X186.778 Y116.114 E0.05619
G1 X184.919 Y115.315 E0.08288
G1 X183.962 Y115.032 E0.04082
G1 X182.97 Y114.937 E0.04082
G1 X116.884 Y114.939 E2.70598
G1 X115.54 Y115.154 E0.05573
G1 X113.696 Y115.888 E0.08125
G1 X112.85 Y116.336 E0.03921
G1 X112.142 Y116.898 E0.03698
; INIT printing object miodecModplate.stl id:0 copy 0
M104 S255 ; set temperature
G1 E-1
SET_VELOCITY_LIMIT ACCEL=5000 ACCEL_TO_DECEL=5000 SQUARE_CORNER_VELOCITY=8
G1 Z0.45 F27000
; printing object miodecModplate.stl id:0 copy 0
G1 X140.275 Y143.031
G1 Z0.25
G1 E1 F1800
; custom gcode: feature_gcode
; External perimeter
;Perimeter
SET_VELOCITY_LIMIT ACCEL=2000 ACCEL_TO_DECEL=2000 SQUARE_CORNER_VELOCITY=8

; Overhang perimeter
; custom gcode end: feature_gcode

;TYPE:Internal perimeter
; extr_mult= 1.0
G1 X140.248 Y142.634 E0.01631
G1 X140.165 Y142.24 E0.01647
G1 X139.963 Y141.738 E0.02216
G1 X139.638 Y141.261 E0.02363
G1 X139.216 Y140.863 E0.02376
G1 X138.722 Y140.568 E0.02357
G1 X138.175 Y140.383 E0.02361
G1 X137.69 Y140.331 E0.01999
G1 X132.344 Y140.331 E0.21888
G1 X132.034 Y140.352 E0.01274
G1 X131.64 Y140.435 E0.01647
G1 X131.138 Y140.637 E0.02216
G1 X130.661 Y140.962 E0.02363
G1 X130.263 Y141.384 E0.02376
G1 X129.968 Y141.878 E0.02357
G1 X129.783 Y142.425 E0.02361
G1 X129.718 Y143.032 E0.02499
G1 X129.087 Y143.032 E0.02584
G1 X128.677 Y143.061 E0.01683
G1 X128.174 Y143.207 E0.02142
G1 X127.729 Y143.433 E0.02044
G1 X127.314 Y143.755 E0.02154
G1 X126.964 Y144.156 E0.02177
G1 X126.694 Y144.626 E0.02221
G1 X126.521 Y145.163 E0.0231
G1 X126.481 Y145.628 E0.01908
G1 X126.481 Y154.359 E0.35751
G1 X126.504 Y154.683 E0.01332
G1 X126.593 Y155.079 E0.01662
G1 X126.782 Y155.55 E0.02076
G1 X127.102 Y156.028 E0.02356
G1 X127.526 Y156.43 E0.02393
G1 X128.023 Y156.73 E0.02376
G1 X128.571 Y156.916 E0.02369
G1 X129.051 Y156.969 E0.01979
G1 X129.725 Y156.969 E0.02759
G1 X129.752 Y157.366 E0.01631
G1 X129.835 Y157.76 E0.01647
G1 X130.037 Y158.262 E0.02216
G1 X130.362 Y158.739 E0.02363
G1 X130.784 Y159.137 E0.02376
G1 X131.278 Y159.432 E0.02357
G1 X131.825 Y159.617 E0.02361
G1 X132.31 Y159.669 E0.01999
G1 X137.656 Y159.669 E0.21888
G1 X137.966 Y159.648 E0.01274
G1 X138.36 Y159.565 E0.01647
G1 X138.862 Y159.363 E0.02216
G1 X139.339 Y159.038 E0.02363
G1 X139.737 Y158.616 E0.02376
G1 X140.032 Y158.122 E0.02357
G1 X140.217 Y157.575 E0.02361
G1 X140.282 Y156.969 E0.02496
G1 X140.91 Y156.969 E0.0257
G1 X141.217 Y156.948 E0.01261
G1 X141.609 Y156.865 E0.01641
G1 X142.111 Y156.663 E0.02215
G1 X142.588 Y156.339 E0.02364
G1 X142.987 Y155.916 E0.02377
G1 X143.282 Y155.422 E0.02358
G1 X143.467 Y154.875 E0.02362
G1 X143.519 Y154.39 E0.02
G1 X143.519 Y145.644 E0.35809
G1 X143.498 Y145.334 E0.01275
G1 X143.417 Y144.949 E0.01609
G1 X143.218 Y144.45 E0.02199
G1 X142.913 Y143.997 E0.02239
G1 X142.778 Y143.857 E0.00796
G1 X142.469 Y143.566 E0.01735
G1 X141.974 Y143.269 E0.02366
G1 X141.427 Y143.084 E0.02364
G1 X140.948 Y143.031 E0.01975
G1 X140.335 Y143.031 E0.0251
SET_VELOCITY_LIMIT ACCEL=5000 ACCEL_TO_DECEL=5000 SQUARE_CORNER_VELOCITY=8
G1 X139.843 Y143.457 F27000
SET_VELOCITY_LIMIT ACCEL=2000 ACCEL_TO_DECEL=2000 SQUARE_CORNER_VELOCITY=8
G1 F1800
G1 X139.843 Y142.958 E0.02043
G1 X139.825 Y142.692 E0.01093
G1 X139.756 Y142.365 E0.0137
G1 X139.584 Y141.94 E0.01875
G1 X139.312 Y141.539 E0.01985
G1 X138.957 Y141.205 E0.01995
G1 X138.542 Y140.957 E0.0198
G1 X138.083 Y140.802 E0.01984
G1 X137.667 Y140.757 E0.01714
G1 X132.358 Y140.757 E0.21736
G1 X132.092 Y140.775 E0.01093
G1 X131.765 Y140.844 E0.0137
G1 X131.34 Y141.016 E0.01875
G1 X130.939 Y141.288 E0.01985
G1 X130.605 Y141.643 E0.01995
G1 X130.357 Y142.058 E0.0198
G1 X130.202 Y142.517 E0.01984
G1 X130.157 Y142.933 E0.01714
G1 X130.157 Y143.458 E0.02148
G1 X129.102 Y143.458 E0.04321
G1 X128.752 Y143.483 E0.01437
G1 X128.331 Y143.605 E0.01793
G1 X127.958 Y143.795 E0.01713
G1 X127.608 Y144.067 E0.01818
G1 X127.313 Y144.404 E0.01835
G1 X127.087 Y144.8 E0.01865
G1 X126.942 Y145.248 E0.0193
G1 X126.907 Y145.646 E0.01635
G1 X126.907 Y154.344 E0.35613
G1 X126.927 Y154.621 E0.0114
G1 X127.001 Y154.952 E0.01389
G1 X127.161 Y155.349 E0.01751
G1 X127.43 Y155.751 E0.01982
G1 X127.786 Y156.089 E0.02009
G1 X128.204 Y156.341 E0.01997
G1 X128.664 Y156.497 E0.01991
G1 X129.075 Y156.543 E0.01692
G1 X130.157 Y156.543 E0.04432
G1 X130.157 Y157.042 E0.02043
G1 X130.175 Y157.308 E0.01093
G1 X130.244 Y157.635 E0.0137
G1 X130.416 Y158.06 E0.01875
G1 X130.688 Y158.461 E0.01985
G1 X131.043 Y158.795 E0.01995
G1 X131.458 Y159.043 E0.0198
G1 X131.917 Y159.198 E0.01984
G1 X132.333 Y159.243 E0.01714
G1 X137.642 Y159.243 E0.21736
G1 X137.908 Y159.225 E0.01093
G1 X138.235 Y159.156 E0.0137
G1 X138.66 Y158.984 E0.01875
G1 X139.061 Y158.712 E0.01985
G1 X139.395 Y158.357 E0.01995
G1 X139.643 Y157.942 E0.0198
G1 X139.798 Y157.483 E0.01984
G1 X139.843 Y157.067 E0.01713
G1 X139.843 Y156.543 E0.02147
G1 X140.895 Y156.543 E0.04309
G1 X141.158 Y156.525 E0.01079
G1 X141.484 Y156.456 E0.01364
G1 X141.909 Y156.285 E0.01875
G1 X142.31 Y156.012 E0.01986
G1 X142.644 Y155.658 E0.01996
G1 X142.893 Y155.242 E0.01981
G1 X143.048 Y154.783 E0.01984
G1 X143.093 Y154.367 E0.01714
G1 X143.093 Y145.659 E0.35657
G1 X143.075 Y145.392 E0.01093
G1 X143.008 Y145.073 E0.01335
G1 X142.839 Y144.65 E0.01863
G1 X142.581 Y144.266 E0.01897
G1 X142.479 Y144.161 E0.00601
G1 X142.211 Y143.908 E0.01508
G1 X141.794 Y143.658 E0.0199
G1 X141.334 Y143.503 E0.01986
G1 X140.924 Y143.457 E0.0169
G1 X139.903 Y143.457 E0.04183
SET_VELOCITY_LIMIT ACCEL=5000 ACCEL_TO_DECEL=5000 SQUARE_CORNER_VELOCITY=8
G1 X139.416 Y143.884 F27000
SET_VELOCITY_LIMIT ACCEL=2000 ACCEL_TO_DECEL=2000 SQUARE_CORNER_VELOCITY=8
G1 F1800
G1 X139.416 Y142.973 E0.0373
G1 X139.401 Y142.751 E0.00911
G1 X139.346 Y142.49 E0.01093
G1 X139.206 Y142.142 E0.01535
G1 X138.985 Y141.818 E0.01607
G1 X138.699 Y141.547 E0.01613
G1 X138.362 Y141.347 E0.01604
G1 X137.991 Y141.221 E0.01606
G1 X137.644 Y141.184 E0.01429
G1 X132.373 Y141.184 E0.21584
G1 X132.151 Y141.199 E0.00911
G1 X131.89 Y141.254 E0.01093
G1 X131.542 Y141.394 E0.01535
G1 X131.218 Y141.615 E0.01607
G1 X130.947 Y141.901 E0.01613
G1 X130.747 Y142.238 E0.01604
G1 X130.621 Y142.609 E0.01606
G1 X130.584 Y142.956 E0.01429
G1 X130.584 Y143.884 E0.03799
G1 X129.117 Y143.885 E0.06004
G1 X128.827 Y143.906 E0.01191
G1 X128.489 Y144.004 E0.01443
G1 X128.188 Y144.156 E0.01382
G1 X127.902 Y144.378 E0.01482
G1 X127.662 Y144.653 E0.01492
G1 X127.479 Y144.973 E0.0151
G1 X127.363 Y145.333 E0.0155
G1 X127.334 Y145.665 E0.01362
G1 X127.334 Y154.329 E0.35475
G1 X127.35 Y154.559 E0.00947
G1 X127.41 Y154.825 E0.01115
G1 X127.54 Y155.148 E0.01427
G1 X127.758 Y155.475 E0.01608
G1 X128.046 Y155.748 E0.01625
G1 X128.384 Y155.952 E0.01617
G1 X128.757 Y156.078 E0.01613
G1 X129.098 Y156.116 E0.01406
G1 X130.584 Y156.116 E0.06081
G1 X130.584 Y157.027 E0.0373
G1 X130.599 Y157.249 E0.00911
G1 X130.654 Y157.51 E0.01093
G1 X130.794 Y157.858 E0.01535
G1 X131.015 Y158.182 E0.01607
G1 X131.301 Y158.453 E0.01613
G1 X131.638 Y158.653 E0.01604
G1 X132.009 Y158.779 E0.01606
G1 X132.356 Y158.816 E0.01429
G1 X137.627 Y158.816 E0.21584
G1 X137.849 Y158.801 E0.00911
G1 X138.11 Y158.746 E0.01093
G1 X138.458 Y158.606 E0.01535
G1 X138.782 Y158.385 E0.01607
G1 X139.053 Y158.099 E0.01613
G1 X139.253 Y157.762 E0.01604
G1 X139.379 Y157.391 E0.01606
G1 X139.416 Y157.044 E0.01428
G1 X139.417 Y156.116 E0.03799
G1 X140.881 Y156.116 E0.05995
G1 X141.1 Y156.101 E0.00898
G1 X141.36 Y156.047 E0.01088
G1 X141.707 Y155.906 E0.01535
G1 X142.032 Y155.686 E0.01607
G1 X142.302 Y155.399 E0.01614
G1 X142.503 Y155.063 E0.01604
G1 X142.629 Y154.691 E0.01606
G1 X142.666 Y154.344 E0.01429
G1 X142.666 Y145.673 E0.35505
G1 X142.652 Y145.451 E0.00911
G1 X142.598 Y145.197 E0.01062
G1 X142.46 Y144.851 E0.01527
G1 X142.248 Y144.536 E0.01554
G1 X142.179 Y144.465 E0.00405
G1 X141.952 Y144.25 E0.01281
G1 X141.614 Y144.047 E0.01614
G1 X141.242 Y143.921 E0.01608
G1 X140.901 Y143.884 E0.01404
G1 X139.476 Y143.884 E0.05833
G1 E-1
SET_VELOCITY_LIMIT ACCEL=5000 ACCEL_TO_DECEL=5000 SQUARE_CORNER_VELOCITY=8
G1 Z0.45 F27000
G1 X131.01 Y155.69
G1 Z0.25
G1 E1 F1800
; custom gcode: feature_gcode
; External perimeter
;ExternalPerimeter
SET_VELOCITY_LIMIT ACCEL=1000 ACCEL_TO_DECEL=1000 SQUARE_CORNER_VELOCITY=8

; Perimeter
; custom gcode end: feature_gcode

;TYPE:External perimeter
; extr_mult= 1.0
G1 X131.01 Y157.013 E0.05417
G1 X131.022 Y157.191 E0.00729
G1 X131.063 Y157.386 E0.00815
G1 X131.172 Y157.656 E0.01194
G1 X131.341 Y157.904 E0.01229
G1 X131.56 Y158.11 E0.01232
G1 X131.817 Y158.264 E0.01227
G1 X132.101 Y158.36 E0.01228
G1 X132.379 Y158.39 E0.01144
G1 X137.613 Y158.39 E0.21431
G1 X137.791 Y158.378 E0.00729
G1 X137.986 Y158.337 E0.00815
G1 X138.256 Y158.228 E0.01194
G1 X138.504 Y158.059 E0.01229
G1 X138.71 Y157.84 E0.01232
G1 X138.864 Y157.583 E0.01227
G1 X138.96 Y157.299 E0.01228
G1 X138.99 Y157.021 E0.01144
G1 X138.991 Y155.69 E0.0545
G1 X139.111 Y155.69 E0.00441
G1 X139.351 Y155.69 E0.00932
G1 X140.866 Y155.69 E0.06207
G1 X141.041 Y155.678 E0.00716
G1 X141.235 Y155.637 E0.00812
G1 X141.505 Y155.528 E0.01194
G1 X141.754 Y155.359 E0.01229
G1 X141.96 Y155.14 E0.01232
G1 X142.114 Y154.883 E0.01228
G1 X142.21 Y154.599 E0.01228
G1 X142.24 Y154.321 E0.01144
G1 X142.24 Y145.687 E0.35353
G1 X142.228 Y145.509 E0.0073
G1 X142.188 Y145.321 E0.00788
G1 X142.081 Y145.051 E0.01191
G1 X141.916 Y144.805 E0.01211
G1 X141.88 Y144.768 E0.00209
G1 X141.693 Y144.592 E0.01054
G1 X141.434 Y144.436 E0.01237
G1 X141.149 Y144.34 E0.01231
G1 X140.877 Y144.31 E0.01119
G1 X138.99 Y144.31 E0.07728
G1 X138.99 Y144.19 E0.00441
G1 X138.99 Y143.95 E0.00932
G1 X138.99 Y142.987 E0.03943
G1 X138.978 Y142.809 E0.00729
G1 X138.937 Y142.614 E0.00815
G1 X138.828 Y142.344 E0.01194
G1 X138.659 Y142.096 E0.01229
G1 X138.44 Y141.89 E0.01232
G1 X138.183 Y141.736 E0.01227
G1 X137.899 Y141.64 E0.01228
G1 X137.621 Y141.61 E0.01144
G1 X132.387 Y141.61 E0.21431
G1 X132.209 Y141.622 E0.00729
G1 X132.014 Y141.663 E0.00815
G1 X131.744 Y141.772 E0.01194
G1 X131.496 Y141.941 E0.01229
G1 X131.29 Y142.16 E0.01232
G1 X131.136 Y142.417 E0.01227
G1 X131.04 Y142.701 E0.01228
G1 X131.01 Y142.979 E0.01144
G1 X131.01 Y144.31 E0.0545
G1 X130.89 Y144.31 E0.00441
G1 X130.65 Y144.31 E0.00932
G1 X129.133 Y144.311 E0.06213
G1 X128.903 Y144.328 E0.00945
G1 X128.646 Y144.402 E0.01094
G1 X128.417 Y144.518 E0.01051
G1 X128.196 Y144.69 E0.01147
G1 X128.011 Y144.901 E0.0115
G1 X127.871 Y145.146 E0.01155
G1 X127.783 Y145.418 E0.01171
G1 X127.76 Y145.683 E0.01089
G1 X127.76 Y154.314 E0.35338
G1 X127.773 Y154.497 E0.00755
G1 X127.818 Y154.698 E0.00842
G1 X127.919 Y154.948 E0.01103
G1 X128.086 Y155.198 E0.01233
G1 X128.306 Y155.407 E0.0124
G1 X128.565 Y155.563 E0.01237
G1 X128.85 Y155.66 E0.01235
G1 X129.122 Y155.69 E0.01119
G1 X130.95 Y155.69 E0.07485
;WIPE_START
SET_VELOCITY_LIMIT ACCEL=5000 ACCEL_TO_DECEL=5000 SQUARE_CORNER_VELOCITY=8
G1 X130.81 Y156.036 F27000
;WIPE_END
G1 E-1 F1800
G1 Z0.45 F27000
G1 X183.137 Y121.863
G1 Z0.25
G1 E1 F1800
; custom gcode: feature_gcode
; External perimeter
;Perimeter
SET_VELOCITY_LIMIT ACCEL=2000 ACCEL_TO_DECEL=2000 SQUARE_CORNER_VELOCITY=8

; Overhang perimeter
; custom gcode end: feature_gcode

;TYPE:Internal perimeter
; extr_mult= 1.0
G1 X183.331 Y122.332 E0.02078
G1 X183.331 Y177.668 E2.26579
M73 P1 R46
G1 X183.137 Y178.137 E0.02078
G1 X182.668 Y178.331 E0.02078
G1 X117.332 Y178.331 E2.67525
G1 X116.863 Y178.137 E0.02078
G1 X116.669 Y177.668 E0.02078
G1 X116.669 Y122.332 E2.26579
M73 P1 R45
G1 X116.863 Y121.863 E0.02078
G1 X117.332 Y121.669 E0.02078
G1 X117.5 Y121.669 E0.00688
G1 X182.668 Y121.669 E2.66837
G1 X183.081 Y121.84 E0.01832
SET_VELOCITY_LIMIT ACCEL=5000 ACCEL_TO_DECEL=5000 SQUARE_CORNER_VELOCITY=8
G1 X183.463 Y178.463 F27000
SET_VELOCITY_LIMIT ACCEL=2000 ACCEL_TO_DECEL=2000 SQUARE_CORNER_VELOCITY=8
G1 F1800
G1 X182.753 Y178.757 E0.03148
G1 X117.247 Y178.757 E2.68219
G1 X116.537 Y178.463 E0.03148
G1 X116.243 Y177.753 E0.03148
G1 X116.243 Y122.247 E2.27273
G1 X116.537 Y121.537 E0.03148
G1 X117.247 Y121.243 E0.03148
G1 X117.5 Y121.243 E0.01035
G1 X182.753 Y121.243 E2.67184
G1 X183.463 Y121.537 E0.03148
G1 X183.757 Y122.247 E0.03148
G1 X183.757 Y177.753 E2.27273
G1 X183.486 Y178.408 E0.02902
SET_VELOCITY_LIMIT ACCEL=5000 ACCEL_TO_DECEL=5000 SQUARE_CORNER_VELOCITY=8
G1 X183.789 Y178.789 F27000
SET_VELOCITY_LIMIT ACCEL=2000 ACCEL_TO_DECEL=2000 SQUARE_CORNER_VELOCITY=8
G1 F1800
G1 X182.838 Y179.184 E0.04218
G1 X117.162 Y179.184 E2.68914
G1 X116.211 Y178.789 E0.04218
G1 X115.816 Y177.838 E0.04218
G1 X115.816 Y122.162 E2.27968
G1 X116.211 Y121.211 E0.04218
G1 X117.162 Y120.816 E0.04218
G1 X117.5 Y120.816 E0.01382
G1 X182.838 Y120.816 E2.67532
M73 P2 R45
G1 X183.789 Y121.211 E0.04218
G1 X184.184 Y122.162 E0.04218
G1 X184.184 Y177.838 E2.27968
G1 X183.812 Y178.734 E0.03973
SET_VELOCITY_LIMIT ACCEL=5000 ACCEL_TO_DECEL=5000 SQUARE_CORNER_VELOCITY=8
G1 X184.116 Y179.116 F27000
; custom gcode: feature_gcode
; External perimeter
;ExternalPerimeter
SET_VELOCITY_LIMIT ACCEL=1000 ACCEL_TO_DECEL=1000 SQUARE_CORNER_VELOCITY=8

; Perimeter
; custom gcode end: feature_gcode

;TYPE:External perimeter
; extr_mult= 1.0
G1 F1800
G1 X182.922 Y179.61 E0.05289
G1 X117.078 Y179.61 E2.69608
G1 X115.884 Y179.116 E0.05289
G1 X115.39 Y177.922 E0.05289
G1 X115.39 Y122.078 E2.28662
G1 X115.884 Y120.884 E0.05289
G1 X117.078 Y120.39 E0.05289
G1 X117.5 Y120.39 E0.0173
G1 X182.922 Y120.39 E2.67879
G1 X184.116 Y120.884 E0.05289
G1 X184.61 Y122.078 E0.05289
G1 X184.61 Y177.922 E2.28662
G1 X184.139 Y179.06 E0.05043
;WIPE_START
SET_VELOCITY_LIMIT ACCEL=5000 ACCEL_TO_DECEL=5000 SQUARE_CORNER_VELOCITY=8
G1 X183.746 Y178.963 F27000
;WIPE_END
G1 X182.037 Y121.733
; custom gcode: feature_gcode
; External perimeter
;SolidInfill
